src/img/contact-icon/mail.svg

<svg width="18" height="14" viewBox="0 0 18 14" fill="none" xmlns="http://www.w3.org/2000/svg">
<g clip-path="url(#clip0)">
<path d="M15.7999 0H2.20006C0.984683 0 0 0.984683 0 2.20006V11.4955C0 12.7108 0.984683 13.6955 2.20006 13.6955H15.7943C17.0097 13.6955 17.9944 12.7108 17.9944 11.4955V2.20569C18 0.99031 17.0153 0 15.7999 0ZM16.9984 11.4955C16.9984 12.1538 16.4639 12.6883 15.8056 12.6883H2.20006C1.54173 12.6883 1.00719 12.1538 1.00719 11.4955V2.20569C1.00719 1.54736 1.54173 1.01282 2.20006 1.01282H15.7943C16.4526 1.01282 16.9872 1.54736 16.9872 2.20569L16.9984 11.4955Z" fill="#26B899"/>
<path d="M11.3494 6.73532L15.7552 2.78534C15.9577 2.59965 15.9802 2.28455 15.7945 2.07636C15.6089 1.8738 15.2938 1.85129 15.0856 2.03698L9.00867 7.48368L7.82705 6.42585C7.82142 6.42022 7.82142 6.42022 7.82142 6.41459C7.79329 6.38646 7.77078 6.36395 7.73702 6.34145L2.91488 2.03135C2.70669 1.84567 2.39159 1.86255 2.20591 2.07074C2.02023 2.27893 2.03711 2.59403 2.2453 2.77971L6.70169 6.76345L2.2678 10.916C2.06524 11.1073 2.05399 11.4224 2.2453 11.625C2.34658 11.7319 2.48162 11.7825 2.61666 11.7825C2.74045 11.7825 2.86424 11.7375 2.9599 11.6475L7.46131 7.43304L8.68232 8.52463C8.77797 8.60903 8.89613 8.65404 9.01992 8.65404C9.14371 8.65404 9.26187 8.60903 9.35753 8.52463L10.6123 7.39928L15.0912 11.6531C15.1869 11.7488 15.3163 11.7881 15.4401 11.7881C15.5751 11.7881 15.7045 11.7375 15.8058 11.6306C15.9971 11.428 15.9859 11.1073 15.7889 10.9216L11.3494 6.73532Z" fill="#26B899"/>
</g>
<defs>
<clipPath id="clip0">
<rect width="18" height="13.6955" fill="white"/>
</clipPath>
</defs>
</svg>

<svg width="18" height="14" fill="none" xmlns="http://www.w3.org/2000/svg"><g clip-path="url(#clip0)" fill="#26B899"><path d="M15.8 0H2.2A2.2 2.2 0 000 2.2v9.295a2.2 2.2 0 002.2 2.2h13.594a2.2 2.2 0 002.2-2.2v-9.29A2.196 2.196 0 0015.8 0zm1.198 11.495c0 .659-.534 1.193-1.192 1.193H2.2a1.193 1.193 0 01-1.193-1.193v-9.29c0-.658.535-1.192 1.193-1.192h13.594c.659 0 1.193.534 1.193 1.193l.011 9.29z"/><path d="M11.35 6.735l4.405-3.95a.505.505 0 00.04-.709.505.505 0 00-.71-.039L9.01 7.484 7.827 6.426c-.006-.006-.006-.006-.006-.011a.495.495 0 00-.084-.074l-4.822-4.31a.5.5 0 00-.71.04.5.5 0 00.04.709l4.457 3.983-4.434 4.153a.5.5 0 00.349.867.5.5 0 00.343-.135l4.5-4.215 1.221 1.092a.507.507 0 00.676 0l1.254-1.126 4.48 4.254a.488.488 0 00.348.135.504.504 0 00.349-.867l-4.44-4.186z"/></g><defs><clipPath id="clip0"><path fill="#fff" d="M0 0h18v13.695H0z"/></clipPath></defs></svg>
